X:1
T:Psalm
T:Knut Håkanson (1887-1929)
T:Kom Helge Ande
T:Op 32 nr 5
%%score { ( 1 2 ) | ( 3 4 ) }
L:1/8
Q:1/4=100
M:2/2
K:Bb
V:1 treble nm="Vocals"
V:2 treble 
V:3 bass 
V:4 bass 
V:1
 (A3 B/c/)"^Instrument change" |"^Instrument change" (d2"^Instrument change"{ed} B2) A4 | %2
"^Instrument change" (B2"^Instrument change" c2) d4 | %3
"^Instrument change" (c2"^Instrument change" A2){Bc} B4 | %4
"^Instrument change" (A^F"^Instrument change" !fermata!G2) (A3 B/c/) | %5
"^Instrument change" (d2"^Instrument change" B2) A4 | %6
"^Instrument change" (B2"^Instrument change" c2) d4 | %7
"^Instrument change" (c2"^Instrument change"{dc} A2) B4 | %8
"^Instrument change" (AB"^Instrument change" !fermata!d2) (^c2 (6:4:6d/B/A/G/A/B/) | %9
"^Instrument change" (A"^Instrument change"^F G2) d4 | %10
"^Instrument change" (c2"^Instrument change" A2) (BA G2) | %11
"^Instrument change" (G2{A"^Instrument change"G} ^F2) !fermata!D4 | %12
"^Instrument change" z4"^Instrument change" (A3 B/c/) | %13
"^Instrument change" (d2"^Instrument change" B2) A4 | %14
"^Instrument change" (B2"^Instrument change" c2) d4 | %15
"^Instrument change" (c2"^Instrument change" A2) B4 | %16
"^Instrument change" (A"^Instrument change"^F !fermata!G2) (A3 B/c/) | %17
"^Instrument change" (d2"^Instrument change" B2) A4 | %18
"^Instrument change" (B2"^Instrument change" c2) d4 | %19
"^Instrument change" (c2"^Instrument change" A2) B4 | %20
"^Instrument change" (Ac"^Instrument change" !fermata!d2) (^c2 (6:4:6d/B/A/G/A/B/) | %21
"^Instrument change" (A2"^Instrument change"{BA} ^FG){/G} d4 | %22
"^Instrument change" (c2"^Instrument change" A2) (B2 G2) | %23
"^Instrument change" !fermata!^F4"^Instrument change" !fermata!G4 |] %24
V:2
 D4 | D4 D4 | D4 (D2 F2) | E2 D2 D4 | E2 !fermata!D2 !courtesy!=F4 | F4 E4 | F4 F4 | %7
w: Kom|Hel- ge|An- de *|till * mig|in, * Upp-|lys min|själ, upp-|
 (E2 C2) (B,2 C2) | (E2 !fermata!D2) (E2 D2) | D4 (DG !courtesy!=F2) | E4 D4 | D4 !fermata!D4 | %12
w: tänd * mitt *|sinn * Att *|jag i * *|dig må|bli- va!|
 z4 D4 | D4 C4 | F4 F4 | (C2 D2) D4 | !fermata!D4 (E2 D2) | D4 (^C2 D2) | G4 G4 | (G2 ^F2) G4 | %20
w: Låt|ly- sa|liv- sens|ljus * för|mig Och *|led mig *|på de|rät- * ta|
 (G2 !fermata!^F2) (=E2 D2) | D4 (D2 !courtesy!=F2) | (=E2 F2) (D2 _E2) | %23
w: stig; * Dig *|vill jag *|helt * mig *|
 !fermata!D4 !fermata!D4 |] %24
w: gi- va.|
V:3
 ^F,4 | G,4 A,4 | G,4 (G,2 _A,2) | G,2 ^F,2 G,4 | (C2 !fermata!B,2) (C3 B,/A,/) | (B,2 D4) C2 | %6
 (B,2 A,2) (B,2 A,2) | (G,2 F,2) (F,2 E,2) | (G,2 !fermata!F,2) B,4 | (^F,A, G,2) _A,4 | %10
 (G,2 ^F,2) G,4 | (B,2 A,2) !fermata!^F,4 | z4 !courtesy!=F,4 | F,4 F,4 | (F,2 G,A,) (B,2 A,2) | %15
 (G,2 ^F,2) G,4 | (^F,A, !fermata!B,2) (C2 B,2) | (A,2 B,2) (G,2 A,2) | (D2 E2) D4 | (E2 D2) D4 | %20
 (C2 !fermata!A,2) A,4 | A,4 (G,2 _A,2) | (G,2 F,2) (F,2 CB,) | !fermata!A,4 !fermata!B,4 |] %24
V:4
 (D,2 C,2) | (B,,2 G,,4) ^F,,2 | (G,,2 A,,2) (B,,2 =B,,2) | (C,2 D,2) G,4 | !fermata!G,4 F,4 | %5
 B,,4 C,4 | (D,2 F,2) (B,,2 C,D,) | (E,2 F,2) (D,2 C,2) | !fermata!B,,4 G,4 | (D,C, B,,2) =B,,4 | %10
 C,4 (G,,A,,B,,C,) | D,4 !fermata!D,4 | z4 (D,2 C,2) | (B,,2 D,2) (F,2 E,2) | (D,2 C,2) B,,4 | %15
 (E,2 D,)C, (B,,2 C,2) | (D,2 !fermata!G,,2) G,4 | (^F,2 G,2) (=E,2 F,2) | (G,2 E,2) B,,4 | %19
 (C,2 D,2) (G,2 !courtesy!=F,2) | (E,2 !fermata!D,2) (G,2 ^F,=E,) | (^F,2 D,C,) (B,,2 =B,,2) | %22
 (C,2 D,2) (B,,2 C,2) | !fermata!D,4 !fermata!G,,4 |] %24

